src/assets/img/senser.svg

<svg width="105" height="33" viewBox="0 0 105 33" fill="none" xmlns="http://www.w3.org/2000/svg">
<rect width="82" height="33" rx="4" fill="#FAF9FF"/>
<path d="M17.4983 11.4492H16.1858V22.043H17.4983V11.4492ZM8.62719 18.4688L8.75609 19.5352C10.7073 19.5352 13.1858 19.4941 15.4592 19.125L15.3889 18.1523C14.9084 18.2109 14.4045 18.2578 13.9006 18.2988V13.5469H14.9202V12.4805H8.90844V13.5469H9.93969V18.457C9.4768 18.4629 9.03734 18.4688 8.62719 18.4688ZM11.1936 18.4336V13.5469H12.6233V18.375C12.1428 18.4043 11.6623 18.4219 11.1936 18.4336ZM28.3297 17.6133H18.65V18.6445H22.8219V22.043H24.1109V18.6445H28.3297V17.6133ZM19.8219 16.5117H27.1578V11.8711H25.8453V13.1719H21.1109V11.8711H19.8219V16.5117ZM21.1109 15.457V14.2031H25.8453V15.457H21.1109ZM40.0316 11.4492H38.7308V13.8867H36.9027V14.9648H38.7308V17.2266H40.0316V11.4492ZM31.137 16.3828L31.805 17.4141C33.0648 16.9863 33.9437 16.0957 34.4066 14.9883C34.8695 15.9844 35.7073 16.7871 36.8909 17.1914L37.5472 16.1836C35.9183 15.6387 35.0628 14.3262 35.0511 13.0547H37.2425V11.9883H31.5237V13.0547H33.7269C33.7152 14.4492 32.8128 15.8203 31.137 16.3828ZM33.0472 21.9141H40.0316V17.6719H38.7308V18.7734H34.348V17.6719H33.0472V21.9141ZM34.348 20.8594V19.793H38.7308V20.8594H34.348ZM50.8278 16.9805H46.6325V15.8086H45.3434V16.9805H41.1716V18.0117H50.8278V16.9805ZM41.6286 15.293L42.0387 16.3008C43.9196 16.1367 45.32 15.5449 45.988 14.625C46.6442 15.5449 48.0446 16.1367 49.9372 16.3008L50.3473 15.293C48.0973 15.1406 46.8493 14.3848 46.7262 13.4766H49.8786V12.4453H46.6325V11.4375H45.3434V12.4453H42.1208V13.4766H45.2497C45.1149 14.3848 43.8669 15.1406 41.6286 15.293ZM42.238 19.8633H48.3434V22.043H49.6442V18.8203H42.238V19.8633ZM62.7289 11.4492H61.4867V19.3828H62.7289V11.4492ZM53.6 16.9688L54.3148 17.9531C55.2816 17.502 55.9437 16.6758 56.3187 15.7031C56.6703 16.5645 57.2797 17.2793 58.1703 17.6953L58.8969 16.6875C57.5492 16.084 56.9398 14.8535 56.9398 13.6172V12.1758H55.6742V13.6172C55.6742 14.877 55.0121 16.2832 53.6 16.9688ZM55.6391 21.832H63.0219V20.7773H56.9398V18.4336H55.6391V21.832ZM57.9477 15.0352H59.3656V19.0664H60.6078V11.6367H59.3656V13.9688H57.9477V15.0352ZM67.5955 13.9922V12.3047H66.2712V13.9922C66.2654 15.9727 65.3045 18.0117 63.5759 18.8203L64.3962 19.875C65.615 19.2598 66.4822 18.041 66.9451 16.5762C67.3962 17.9648 68.24 19.0898 69.4353 19.6758L70.2205 18.6328C68.533 17.8945 67.5896 15.9609 67.5955 13.9922ZM69.0486 15.9258H71.2752V22.0547H72.5642V11.4492H71.2752V14.8711H69.0486V15.9258Z" fill="#55576F"/>
<rect x="0.418103" y="0.418103" width="81.1638" height="32.1638" rx="3.5819" stroke="url(#paint0_linear_1476_16201)" stroke-opacity="0.5" stroke-width="0.836207"/>
<defs>
<linearGradient id="paint0_linear_1476_16201" x1="77.0517" y1="27.6964" x2="2.6743" y2="19.4672" gradientUnits="userSpaceOnUse">
<stop stop-color="#BDA8D9"/>
<stop offset="1" stop-color="#F5F0FF"/>
</linearGradient>
</defs>
</svg>

<svg width="105" height="33" fill="none" xmlns="http://www.w3.org/2000/svg"><rect width="82" height="33" rx="4" fill="#FAF9FF"/><path d="M17.5 11.4h-1.3V22h1.3V11.4zm-8.9 7.1l.2 1c1.9 0 4.4 0 6.7-.4l-.1-.9-1.5.1v-4.8H15v-1H9v1h1v5H8.6zm2.6-.1v-4.9h1.4v4.9h-1.4zm17.1-.8h-9.7v1h4.2V22h1.3v-3.4h4.2v-1zm-8.5-1.1h7.4v-4.6h-1.4v1.3h-4.7v-1.3h-1.3v4.6zm1.3-1v-1.3h4.7v1.3h-4.7zM40 11.4h-1.3v2.5h-1.8V15h1.8v2.2H40v-5.8zm-8.9 5l.7 1C33 17 34 16.1 34.4 15c.5 1 1.3 1.8 2.5 2.2l.6-1C36 15.6 35 14.3 35 13h2.2v-1h-5.7v1h2.2c0 1.4-.9 2.8-2.6 3.4zM33 22h7v-4.3h-1.3v1.1h-4.4v-1.1H33V22zm1.3-1.1v-1.1h4.4v1.1h-4.4zM50.8 17h-4.2v-1.2h-1.3V17h-4.1v1h9.6v-1zm-9.2-1.7l.4 1c2-.2 3.3-.8 4-1.7.6.9 2 1.5 4 1.7l.3-1c-2.2-.2-3.5-.9-3.6-1.8h3.2v-1.1h-3.3v-1h-1.3v1h-3.2v1.1h3.1c-.1.9-1.3 1.6-3.6 1.8zm.6 4.6h6.1V22h1.3v-3.2h-7.4v1.1zm20.5-8.5h-1.2v8h1.2v-8zM53.6 17l.7 1c1-.5 1.7-1.3 2-2.3.4.9 1 1.6 1.9 2l.7-1c-1.4-.7-1.9-1.8-1.9-3.1v-1.4h-1.3v1.4c0 1.3-.7 2.7-2.1 3.4zm2 4.8H63v-1h-6v-2.4h-1.4v3.4zM58 15h1.4v4h1.2v-7.4h-1.2V14H58v1zm9.6-1v-1.7h-1.3V14c0 2-1 4-2.7 4.8l.8 1.1c1.2-.6 2.1-1.9 2.6-3.3.4 1.4 1.2 2.4 2.4 3.1l.8-1.1c-1.7-.7-2.6-2.6-2.6-4.6zm1.4 2h2.3v6h1.3V11.4h-1.3v3.5H69V16z" fill="#55576F"/><rect x=".4" y=".4" width="81.164" height="32.164" rx="3.582" stroke="url(#paint0_linear_1476_16201)" stroke-opacity=".5" stroke-width=".836"/><defs><linearGradient id="paint0_linear_1476_16201" x1="77.052" y1="27.696" x2="2.674" y2="19.467" gradientUnits="userSpaceOnUse"><stop stop-color="#BDA8D9"/><stop offset="1" stop-color="#F5F0FF"/></linearGradient></defs></svg>
